X: 30432
T: CHAFFE'S HORNPIPE
C:
%R: hornpipe, reel
B: Elias Howe "The Musician's Companion" Part 3 1844 p.43 #2
S: http://imslp.org/wiki/The_Musician's_Companion_(Howe,_Elias)
S: https://archive.org/stream/firstthirdpartof03howe/#page/66/mode/1up
Z: 2016 John Chambers <jc:trillian.mit.edu>
M: 2/4
L: 1/16
K: F
% - - - - - - - - - - - - - - - - - - - - - - - - -
c2 |\
fafd dcBA | dBGE FEDC | FAcf dcBA | A4 G2f2 |\
ffaf ddcA | dBAG FEDC | FAcf dBGE | F2A2F2 :|
|: c2 |\
d3e  fgaf | edec A2c2 | d3e  fgaf | f4 e2de |\
fefd dcBA | dBGE FEDC | FAcf dBGE | F2A2F2 :|
% - - - - - - - - - - - - - - - - - - - - - - - - -
